X:1
T:The Gleaner
T:The Gleaner
T:Asa Hull
T:Anna Maria Allen, 1879
T:Public Domain Courtesy of the Cyber Hymnal™
C:Asa Hull
Z:Public Domain
Z:Courtesy of the Cyber Hymnal™
%%score ( 1 2 ) ( 3 4 )
L:1/8
Q:1/4=90
M:2/4
K:F
V:1 treble 
V:2 treble 
V:3 bass 
V:4 bass 
V:1
 [FA]2 [CF][CG] | [FA]>[FB] [FA]2 | [DG][DF] C2 | [EG][GB] [FA]>[CG] | [CF]4 | [EG]2 [CE][DF] | %6
w: 1.~Where hast thou|gleaned to- day,|Christ- ian, Where|hast thou gleaned to-|day?|Ev- en a-|
w: 2.~Where hast thou|gleaned to- day,|Christ- ian, Where|hast thou gleaned to-|day?|Where this- tles|
w: 3.~Where hast thou|gleaned to- day,|Christ- ian, Where|hast thou gleaned to-|day?|What wilt thou|
 [EG]>[FA] [EG]2 | [FA]2 [CF][CG] | [FA]>[FB] [FA]2 | [Ac]2 [FA][GB] | [Fc]>[Fd] [Fc][GB] | %11
w: mong the sheaves?|Hand- fuls the|reap- er leaves?|Say, Christ- ian,|say, where hast thou|
w: clothed the ground?|Where e- vils|clus- tered round?|Say, Christ- ian,|say, where hast thou|
w: say at last,|When God re-|quires the past?|Say, Christ- ian,|say, where hast thou|
 [FA]2 [EG]2 | F4 ||"^Refrain" [Ac]2 [FA][GB] | [Ac]>"^rall."[Af] [Af][Fd] | ([Fc]2 [EG])[EA] | %16
w: gleaned to-|day?||||
w: gleaned to-|day?|Say, Christ- ian,|say, where hast thou|gleaned * to-|
w: gleaned to-|day?||||
 F4 |] %17
w: |
w: day?|
w: |
V:2
 x4 | x4 | x2 C2 | x4 | x4 | x4 | x4 | x4 | x4 | x4 | x4 | x4 | F4 || x4 | x4 | x4 | F4 |] %17
V:3
 [F,C]2 [F,A,][F,B,] | [F,C]>[F,D] [F,C]2 | [B,,B,][B,,B,] [C,A,]2 | [C,C][C,C] [F,C]>[F,B,] | %4
 [F,A,]4 | [C,C]2 [C,G,][C,C] | [C,C]>[C,C] [C,C]2 | [F,C]2 [F,A,][F,B,] | [F,C]>[F,D] [F,C]2 | %9
 [F,C]2 [F,C][F,C] | [F,A,]>[F,B,] [F,A,][B,,D] | [C,C]2 [C,B,]2 | [F,A,]4 || [F,C]2 [F,C][F,C] | %14
 [F,C]>[F,C] [F,C][B,,B,] | (A,2 B,)[C,C] | [F,A,]4 |] %17
V:4
 x4 | x4 | x4 | x4 | x4 | x4 | x4 | x4 | x4 | x4 | x4 | x4 | x4 || x4 | x4 | C,3 x | x4 |] %17

